X:1
T:Title
%%score { ( 1 3 ) | ( 2 4 ) }
L:1/8
M:6/8
K:G
V:1 treble nm="Grand Piano"
V:3 treble 
V:2 bass 
V:4 bass 
V:1
 z3 z2[Q:1/4=100] D | [DB]2 [DB] [DB]2 [CA] | [B,G]2 [CE] [B,G]2 [DB] | A2 A A2 B | %4
[M:7/8] G2 B d3 [GB] |[M:3/4] [Gc]2 [Gd] [Ge]2 [Fd] | [GB]2 .[DG]2 GE | DG AB GA | %8
[M:5/8] [B,G]-[B,G]- [B,G]3 |[M:1/8] [B,D] |[M:3/4] [DB] [B,G]2 [CE]2 [CE] | [B,D]6 | A2 AA GA | %13
[M:7/8] B3 d3 [GB] |[M:3/4] [Gc]2 [Gd] [Ge]2 [Fd] | [GB]2 .[DG]2 GE | DG Bd- d/B/[CFA] | %17
[M:5/8] [B,DG]-[B,DG]- [B,DG]3 |] %18
V:2
 z3 z2 D, | [G,,G,]2 [G,,G,] [G,,G,]2 [G,,D,] | [G,,D,]2 [G,,G,] [G,,G,]2 [G,,G,] | %3
 [D,F,C]2 [D,F,C] [D,F,C]2 [D,F,D] |[M:7/8] [G,B,]2 [G,D] [G,B,D]3 [=F,D] | %5
[M:3/4] [E,C]2 [D,B,] [C,C]2 [D,A,] | [G,,G,]2 [B,,G,] [C,G,]2 [C,G,C] | z2 z D z2 | %8
[M:5/8] [G,,G,]-[G,,G,]- [G,,G,]3 |[M:1/8] [G,,G,] |[M:3/4] [G,,G,] [G,,G,]2 [C,G,]2 [C,G,] | %11
 [G,,G,]2 G,, G,,2 B,, | z2 z .[D,D]3 |[M:7/8] [G,D]3 [G,B,D]3 [=F,D] | %14
[M:3/4] [E,C]2 [D,B,] [C,C]2 [D,A,] | [G,,G,]2 [B,,G,] [C,G,]2 [C,G,C] | z2 z .A,3 | %17
[M:5/8] G,,-G,,- G,,3 |] %18
V:3
 x6 | x6 | x6 | x6 |[M:7/8] x7 |[M:3/4] x6 | z2 z .E3 | x6 |[M:5/8] x5 |[M:1/8] x |[M:3/4] x6 | %11
 z2 G, G,2 [G,DG] | x6 |[M:7/8] x7 |[M:3/4] x6 | z2 z .E3 | z2 z .F3 |[M:5/8] x5 |] %18
V:4
 x6 | x6 | x6 | x6 |[M:7/8] x7 |[M:3/4] x6 | x6 | [D,G,B,]2 [D,G,C][D,G,]- [D,G,B,][D,F,C] | %8
[M:5/8] x5 |[M:1/8] x |[M:3/4] x6 | x6 | [D,F,D]2 [D,F,D]F, E,[D,F,D] |[M:7/8] x7 |[M:3/4] x6 | %15
 x6 | [D,G,B,]2 [D,G,D]D,- D,/-[D,D]/D, |[M:5/8] x5 |] %18

